src/assets/clients/extenseit.svg

<svg width="360" height="59" viewBox="0 0 360 59" fill="none" xmlns="http://www.w3.org/2000/svg">
<g clip-path="url(#clip0_9_1293)">
<path d="M11.1917 58.1627C8.22311 58.1627 5.37668 56.979 3.27824 54.8709C1.17886 52.7637 0 49.9055 0 46.9246C0 36.8618 0 22.183 0 12.1202C0 9.13932 1.17886 6.28109 3.27824 4.17302C5.37668 2.06587 8.22311 0.882126 11.1917 0.882126C22.5149 0.882126 38.3614 0.882126 38.3614 0.882126C38.3614 3.63452 37.2731 6.27548 35.3341 8.22154C33.3961 10.1685 30.7669 11.2614 28.0259 11.2614H11.8679V24.2555H31.6632C33.0333 24.2555 34.3474 24.8024 35.3164 25.7754C36.2854 26.7485 36.8301 28.068 36.8301 29.4437C36.8301 29.4447 36.8301 29.4456 36.8301 29.4475C36.8301 30.8232 36.2854 32.1428 35.3164 33.1158C34.3474 34.0888 33.0333 34.6357 31.6632 34.6357C24.3522 34.6357 11.8679 34.6357 11.8679 34.6357V47.7834H28.0259C30.7669 47.7834 33.3961 48.8763 35.3341 50.8233C37.2731 52.7693 38.3614 55.4094 38.3614 58.1618L11.1917 58.1627Z" fill="#2F84FF"/>
<path d="M40.9644 58.1627L55.5901 37.0959L40.8879 16.1828H46.7524C51.4184 16.1828 55.7813 18.5025 58.402 22.3778C61.5198 26.9873 65.2374 32.4827 65.2374 32.4827H59.4186C59.4186 32.4827 62.9431 27.271 66.0077 22.7421C68.7823 18.6383 73.4017 16.1828 78.341 16.1828H83.7671L69.0658 37.0959L83.6141 58.1627H77.9148C73.2002 58.1627 68.7991 55.7942 66.1887 51.8525C63.151 47.2673 59.5715 41.8628 59.5715 41.8628H65.0844C65.0844 41.8628 61.6933 46.9817 58.7126 51.4826C55.9492 55.6556 51.2888 58.1627 46.2982 58.1627H40.9644Z" fill="#2F84FF"/>
<path d="M108.959 58.1627C103.906 58.1627 99.9877 56.7916 97.2056 54.0495C94.4235 51.3074 93.032 47.4753 93.032 42.5548V25.7164H85.9878V15.7211H86.3711C88.5152 15.7211 90.1613 15.1826 91.3094 14.1065C92.4585 13.0296 93.032 11.415 93.032 9.26292V6.18743H104.518V15.7211H114.319V20.0974C114.319 21.5874 113.729 23.0165 112.68 24.071C111.631 25.1246 110.207 25.7164 108.723 25.7164C106.525 25.7164 104.518 25.7164 104.518 25.7164V41.786C104.518 43.2207 104.773 44.4129 105.283 45.3616C105.794 46.3093 106.585 47.0145 107.657 47.4753C108.729 47.937 110.056 48.1673 111.639 48.1673C111.996 48.1673 112.405 48.1421 112.864 48.0905C113.324 48.039 113.809 47.9885 114.319 47.937V57.7019C113.553 57.804 112.686 57.9061 111.716 58.0091C110.746 58.1112 109.827 58.1627 108.959 58.1627Z" fill="#2F84FF"/>
<path d="M141.195 58.1627C136.753 58.1627 132.9 57.1765 129.633 55.2024C126.366 53.2292 123.839 50.577 122.052 47.2449C120.266 43.9128 119.373 40.2229 119.373 36.1735C119.373 31.9695 120.304 28.2281 122.167 24.9475C124.03 21.667 126.545 19.0785 129.709 17.182C132.874 15.2856 136.447 14.3369 140.429 14.3369C143.747 14.3369 146.682 14.8623 149.235 15.9131C151.787 16.9638 153.944 18.4379 155.705 20.3343C157.466 22.2307 158.806 24.4222 159.724 26.9086C160.644 29.3941 161.103 32.0978 161.103 35.0197C161.103 35.8401 161.065 36.6473 160.988 37.4415C160.912 38.2366 160.771 38.9156 160.567 39.4793H129.25V31.0217H154.059L148.622 35.0197C149.132 32.8161 149.107 30.855 148.546 29.1375C147.984 27.4209 147.001 26.062 145.598 25.0627C144.194 24.0635 142.471 23.5634 140.429 23.5634C138.439 23.5634 136.728 24.0504 135.299 25.0243C133.87 25.9983 132.798 27.434 132.083 29.3304C131.368 31.2268 131.088 33.5335 131.24 36.2503C131.036 38.6075 131.317 40.6837 132.083 42.478C132.848 44.2715 134.023 45.6687 135.605 46.668C137.188 47.6682 139.102 48.1673 141.348 48.1673C143.39 48.1673 145.138 47.7571 146.593 46.9377C146.946 46.7382 147.281 46.52 147.597 46.2849C149.54 44.8661 152.098 44.6273 154.268 45.6622C156.688 46.7438 159.189 47.9369 159.189 47.9369C158.372 49.987 157.083 51.7813 155.322 53.3191C153.56 54.8568 151.481 56.048 149.082 56.8946C146.682 57.7403 144.053 58.1627 141.195 58.1627Z" fill="#2F84FF"/>
<path d="M167.841 58.1627V16.1828H170.292C172.485 16.1828 174.589 17.0575 176.139 18.6139C177.69 20.1714 178.561 22.2832 178.561 24.4858L177.948 22.6409C178.918 20.1292 180.488 18.2712 182.657 17.0668C184.827 15.8625 187.367 15.2594 190.276 15.2594C193.441 15.2594 196.21 15.9262 198.584 17.2588C200.957 18.5915 202.808 20.4495 204.135 22.8329C205.462 25.2163 206.126 27.9977 206.126 31.1753V58.1627H194.641V33.6355C194.641 31.9957 194.322 30.5863 193.684 29.4072C193.046 28.2281 192.152 27.3057 191.003 26.6389C189.855 25.973 188.515 25.6396 186.984 25.6396C185.504 25.6396 184.176 25.973 183.002 26.6389C181.828 27.3057 180.921 28.2281 180.284 29.4072C179.646 30.5863 179.327 31.9957 179.327 33.6355V58.1627H167.841Z" fill="#2F84FF"/>
<path d="M230.092 58.1627C225.498 58.1627 221.504 57.0735 218.11 54.8952C214.715 52.7169 212.405 49.7819 211.18 46.0911C211.18 46.0911 211.638 45.8738 212.341 45.5404C215.93 43.8369 220.172 44.3445 223.263 46.8459C223.483 47.0473 223.721 47.2271 223.967 47.3985C225.805 48.6796 227.847 49.3211 230.092 49.3211C231.726 49.3211 232.977 48.9877 233.844 48.3209C234.713 47.6551 235.146 46.7326 235.146 45.5535C235.146 44.9383 234.993 44.4129 234.687 43.9774C234.381 43.541 233.921 43.1439 233.308 42.7852C232.696 42.4265 231.931 42.1194 231.011 41.8628L223.89 39.8633C220.47 38.8893 217.841 37.3132 216.004 35.1349C214.166 32.9566 213.247 30.3812 213.247 27.4078C213.247 24.794 213.911 22.5126 215.238 20.5647C216.565 18.6168 218.429 17.0921 220.827 15.9899C223.227 14.8885 225.983 14.3369 229.097 14.3369C233.181 14.3369 236.767 15.2978 239.855 17.2204C242.943 19.1421 245.126 21.8468 246.402 25.3315C246.402 25.3315 245.792 25.619 244.899 26.0386C241.604 27.5885 237.74 27.2879 234.723 25.2463C234.674 25.2079 234.624 25.1732 234.572 25.1395C232.964 24.0888 231.139 23.5634 229.097 23.5634C227.617 23.5634 226.456 23.8715 225.613 24.4859C224.771 25.1011 224.35 25.9468 224.35 27.0238C224.35 27.5876 224.503 28.0998 224.809 28.5615C225.116 29.0223 225.613 29.4325 226.302 29.7912C226.991 30.1499 227.847 30.4832 228.868 30.7914L235.529 32.7899C239 33.8153 241.654 35.3662 243.493 37.4415C245.33 39.5177 246.248 42.0678 246.248 45.0918C246.248 47.7066 245.572 49.987 244.22 51.9349C242.867 53.8828 240.991 55.4075 238.592 56.5097C236.193 57.612 233.359 58.1627 230.092 58.1627Z" fill="#2F84FF"/>
<path d="M273.278 58.1627C268.837 58.1627 264.982 57.1765 261.716 55.2024C258.449 53.2292 255.922 50.577 254.136 47.2449C252.349 43.9128 251.455 40.2229 251.455 36.1735C251.455 31.9695 252.387 28.2281 254.25 24.9475C256.114 21.667 258.627 19.0785 261.793 17.182C264.957 15.2856 268.53 14.3369 272.513 14.3369C275.83 14.3369 278.765 14.8623 281.318 15.9131C283.87 16.9638 286.027 18.4379 287.788 20.3343C289.549 22.2307 290.889 24.4222 291.808 26.9086C292.727 29.3941 293.186 32.0978 293.186 35.0197C293.186 35.8401 293.148 36.6473 293.071 37.4415C292.994 38.2366 292.854 38.9156 292.65 39.4793H261.333V31.0217H286.141L280.705 35.0197C281.216 32.8161 281.19 30.855 280.628 29.1375C280.067 27.4209 279.085 26.062 277.68 25.0627C276.277 24.0635 274.554 23.5634 272.513 23.5634C270.521 23.5634 268.811 24.0504 267.382 25.0243C265.952 25.9983 264.881 27.434 264.166 29.3304C263.451 31.2268 263.17 33.5335 263.324 36.2503C263.12 38.6075 263.401 40.6837 264.166 42.478C264.932 44.2715 266.106 45.6687 267.688 46.668C269.271 47.6682 271.185 48.1673 273.431 48.1673C275.473 48.1673 277.221 47.7571 278.676 46.9377C279.03 46.7382 279.365 46.52 279.681 46.2849C281.623 44.8661 284.182 44.6273 286.351 45.6622C288.771 46.7438 291.272 47.9369 291.272 47.9369C290.455 49.987 289.166 51.7813 287.405 53.3191C285.644 54.8568 283.563 56.048 281.165 56.8946C278.765 57.7403 276.137 58.1627 273.278 58.1627Z" fill="#2F84FF"/>
<path d="M312.635 0.88208H300.767V58.1627H312.635V0.88208Z" fill="#2F84FF"/>
<path d="M333.003 58.1627V13.1344C333.003 12.1005 332.167 11.2614 331.138 11.2614C327.227 11.2614 318.531 11.2614 318.531 11.2614V0.88208H359.113V11.2614H346.736C346.242 11.2614 345.767 11.459 345.417 11.8102C345.068 12.1614 344.871 12.6381 344.871 13.1344C344.871 21.8673 344.871 58.1627 344.871 58.1627H333.003Z" fill="#2F84FF"/>
</g>
<defs>
<clipPath id="clip0_9_1293">
<rect width="360" height="59" fill="white"/>
</clipPath>
</defs>
</svg>

<svg xmlns="http://www.w3.org/2000/svg" fill="none" viewBox="0 0 360 59"><g fill="#2F84FF" clip-path="url(#a)"><path d="M11.192 58.163a11.164 11.164 0 0 1-7.914-3.292A11.258 11.258 0 0 1 0 46.925V12.12c0-2.98 1.179-5.839 3.278-7.947a11.167 11.167 0 0 1 7.914-3.29h27.17c0 2.752-1.089 5.392-3.028 7.339a10.31 10.31 0 0 1-7.308 3.04H11.868v12.994h19.795c1.37 0 2.684.546 3.653 1.52a5.2 5.2 0 0 1 1.514 3.668v.004a5.2 5.2 0 0 1-1.514 3.668 5.156 5.156 0 0 1-3.653 1.52H11.868v13.147h16.158a10.31 10.31 0 0 1 7.308 3.04 10.397 10.397 0 0 1 3.027 7.339h-27.17ZM40.964 58.163 55.59 37.096 40.888 16.183h5.864c4.666 0 9.03 2.32 11.65 6.195l6.835 10.105H59.42s3.524-5.212 6.589-9.74a14.89 14.89 0 0 1 12.333-6.56h5.426L69.066 37.096l14.548 21.067h-5.7a14.066 14.066 0 0 1-11.725-6.31l-6.617-9.99h5.512l-6.371 9.62a14.892 14.892 0 0 1-12.415 6.68h-5.334ZM108.959 58.163c-5.053 0-8.971-1.371-11.753-4.113-2.782-2.743-4.174-6.575-4.174-11.495V25.716h-7.044v-9.995h.383c2.144 0 3.79-.538 4.938-1.614 1.15-1.077 1.723-2.692 1.723-4.844V6.187h11.486v9.534h9.801v4.376c0 1.49-.59 2.92-1.639 3.974a5.584 5.584 0 0 1-3.957 1.645h-4.205v16.07c0 1.435.255 2.627.765 3.576.511.947 1.302 1.652 2.374 2.113 1.072.462 2.399.692 3.982.692.357 0 .766-.025 1.225-.077.46-.051.945-.102 1.455-.153v9.765c-.766.102-1.633.204-2.603.307-.97.102-1.889.154-2.757.154ZM141.195 58.163c-4.442 0-8.295-.986-11.562-2.96-3.267-1.974-5.794-4.626-7.581-7.958-1.786-3.332-2.679-7.022-2.679-11.072 0-4.204.931-7.945 2.794-11.226 1.863-3.28 4.378-5.869 7.542-7.765 3.165-1.896 6.738-2.845 10.72-2.845 3.318 0 6.253.525 8.806 1.576 2.552 1.05 4.709 2.525 6.47 4.421a19.463 19.463 0 0 1 4.019 6.575c.92 2.485 1.379 5.189 1.379 8.11 0 .821-.038 1.628-.115 2.422-.076.796-.217 1.475-.421 2.038H129.25v-8.457h24.809l-5.437 3.998c.51-2.204.485-4.165-.076-5.883-.562-1.716-1.545-3.075-2.948-4.074-1.404-1-3.127-1.5-5.169-1.5-1.99 0-3.701.487-5.13 1.461-1.429.974-2.501 2.41-3.216 4.306-.715 1.897-.995 4.203-.843 6.92-.204 2.358.077 4.434.843 6.228.765 1.794 1.94 3.19 3.522 4.19 1.583 1 3.497 1.5 5.743 1.5 2.042 0 3.79-.41 5.245-1.23.353-.2.688-.418 1.004-.653a6.534 6.534 0 0 1 6.671-.623 252.288 252.288 0 0 1 4.921 2.275c-.817 2.05-2.106 3.844-3.867 5.382-1.762 1.538-3.841 2.729-6.24 3.576-2.4.845-5.029 1.268-7.887 1.268ZM167.841 58.163v-41.98h2.451c2.193 0 4.297.875 5.847 2.43a8.32 8.32 0 0 1 2.422 5.873l-.613-1.845c.97-2.512 2.54-4.37 4.709-5.574 2.17-1.204 4.71-1.808 7.619-1.808 3.165 0 5.934.667 8.308 2a14.192 14.192 0 0 1 5.551 5.574c1.327 2.383 1.991 5.165 1.991 8.342v26.988h-11.485V33.636c0-1.64-.319-3.05-.957-4.229a6.978 6.978 0 0 0-2.681-2.768c-1.148-.666-2.488-1-4.019-1-1.48 0-2.808.334-3.982 1a6.9 6.9 0 0 0-2.718 2.768c-.638 1.18-.957 2.589-.957 4.229v24.527h-11.486ZM230.092 58.163c-4.594 0-8.588-1.09-11.982-3.268-3.395-2.178-5.705-5.113-6.93-8.804l1.161-.55a10.319 10.319 0 0 1 10.922 1.305c.22.201.458.381.704.553a10.472 10.472 0 0 0 6.125 1.922c1.634 0 2.885-.333 3.752-1 .869-.666 1.302-1.588 1.302-2.767 0-.616-.153-1.141-.459-1.577-.306-.436-.766-.833-1.379-1.192-.612-.358-1.377-.666-2.297-.922l-7.121-2c-3.42-.974-6.049-2.55-7.886-4.728-1.838-2.178-2.757-4.754-2.757-7.727 0-2.614.664-4.895 1.991-6.843 1.327-1.948 3.191-3.473 5.589-4.575 2.4-1.101 5.156-1.653 8.27-1.653 4.084 0 7.67.96 10.758 2.883 3.088 1.922 5.271 4.627 6.547 8.111l-1.503.708a10.316 10.316 0 0 1-10.176-.793 2.048 2.048 0 0 0-.151-.106c-1.608-1.051-3.433-1.577-5.475-1.577-1.48 0-2.641.309-3.484.923-.842.615-1.263 1.46-1.263 2.538 0 .564.153 1.076.459 1.537.307.461.804.872 1.493 1.23.689.359 1.545.692 2.566 1l6.661 1.999c3.471 1.025 6.125 2.576 7.964 4.651 1.837 2.077 2.755 4.627 2.755 7.65 0 2.616-.676 4.896-2.028 6.844-1.353 1.948-3.229 3.472-5.628 4.575-2.399 1.102-5.233 1.653-8.5 1.653ZM273.278 58.163c-4.441 0-8.296-.986-11.562-2.96-3.267-1.974-5.794-4.626-7.58-7.958-1.787-3.332-2.681-7.022-2.681-11.072 0-4.204.932-7.945 2.795-11.226 1.864-3.28 4.377-5.869 7.543-7.765 3.164-1.896 6.737-2.845 10.72-2.845 3.317 0 6.252.525 8.805 1.576 2.552 1.05 4.709 2.525 6.47 4.421 1.761 1.897 3.101 4.088 4.02 6.575.919 2.485 1.378 5.189 1.378 8.11 0 .821-.038 1.628-.115 2.422-.077.796-.217 1.475-.421 2.038h-31.317v-8.457h24.808l-5.436 3.998c.511-2.204.485-4.165-.077-5.883-.561-1.716-1.543-3.075-2.948-4.074-1.403-1-3.126-1.5-5.167-1.5-1.992 0-3.702.487-5.131 1.461-1.43.974-2.501 2.41-3.216 4.306-.715 1.897-.996 4.203-.842 6.92-.204 2.358.077 4.434.842 6.228.766 1.794 1.94 3.19 3.522 4.19 1.583 1 3.497 1.5 5.743 1.5 2.042 0 3.79-.41 5.245-1.23.354-.2.689-.418 1.005-.653a6.533 6.533 0 0 1 6.67-.623 252.288 252.288 0 0 1 4.921 2.275c-.817 2.05-2.106 3.844-3.867 5.382-1.761 1.538-3.842 2.729-6.24 3.576-2.4.845-5.028 1.268-7.887 1.268ZM312.635.882h-11.868v57.28h11.868V.883ZM333.003 58.163V13.134a1.87 1.87 0 0 0-1.865-1.873h-12.607V.882h40.582v10.38h-12.377c-.494 0-.969.197-1.319.548a1.88 1.88 0 0 0-.546 1.324v45.029h-11.868Z"/></g><defs><clipPath id="a"><path fill="#fff" d="M0 0h360v59H0z"/></clipPath></defs></svg>
